X:1
T:Title
%%score { 1 | ( 2 3 ) }
L:1/8
Q:1/4=90
M:6/8
K:Eb
V:1 treble nm="Grand Piano"
V:2 bass 
V:3 bass 
V:1
 G2 G GFE | A2 A A2 G | B2 c BAG | G2 F [DF]3 | G2 G GAB | B2 [G=B] B2 c | cde eBG | FCD E3 | %8
w: H.~J.~E.~Holmes * * * *||||||||
 [EG]2 [EG] AGA | G2 F B3 | E2 D EBA | F2 [DF] E3 |] %12
w: ||||
V:2
 [E,B,E]2 [E,B,E] [B,E][A,D][E,G,] | [E,CE]2 [E,=B,E] [E,B,E]2 [E,_B,E] | z3 .[G,E]3 | %3
 [F,=A,E]2 [F,A,E] [B,,B,]3 | [E,B,E]2 [E,B,E] [E,E][F,D][G,B,E] | %5
 [G,B,E]2 [E,E][K:treble] [A,EA]2 [A,EA] | .[=A,F]3 .G3[K:bass] | .[F,A,C]2 [B,,A,B,] [E,G,B,]3 | %8
 [C,G,]2 [C,G,] [F,C]2 [F,CF] | [B,E]2 [A,B,D] [G,B,E]3 | [A,C]2 [A,B,C] [G,B,]2 [A,CE] | %11
 [B,E]2 [B,,A,] [E,G,]3 |] %12
V:3
 z3 .E,3 | x6 | [G,B,E]2 [A,E] B,-[F,B,D][E,B,E] | x6 | z3 .B,3 | x3[K:treble] x3 | %6
 EC[=A,CF] B,-[G,B,E][K:bass][E,B,E] | x6 | x6 | x6 | x6 | x6 |] %12

